svgs/sharp-thin/file-slash.svg

<svg xmlns="http://www.w3.org/2000/svg" viewBox="0 0 640 512"><!--! Font Awesome Pro 6.6.0 by @fontawesome - https://fontawesome.com License - https://fontawesome.com/license (Commercial License) Copyright 2024 Fonticons, Inc. --><path d="M512 160L352 0 144 0 128 0l0 12.7 16 12.6 0-9.3 192 0 0 152 0 8 8 0 152 0 0 127.2 16 12.6L512 160zM144 496l0-287.2-16-12.6L128 496l0 16 16 0 352 0 16 0 0-12.7-16-12.6 0 9.3-352 0zM489.4 160L352 160l0-137.4L489.4 160zM16.2 5L9.9 0 0 12.5l6.3 5L623.8 507l6.3 5 9.9-12.5-6.3-5L16.2 5z"/></svg>

<svg xmlns="http://www.w3.org/2000/svg" viewBox="0 0 640 512"><!--! Font Awesome Pro 6.5.2 by @fontawesome - https://fontawesome.com License - https://fontawesome.com/license (Commercial License) Copyright 2024 Fonticons, Inc. --><path d="M512 160L352 0H144 128V12.7l16 12.6V16H336V168v8h8H496V303.2l16 12.6V160zM144 496V208.8l-16-12.6V496v16h16H496h16V499.3l-16-12.6V496H144zM489.4 160H352V22.6L489.4 160zM16.2 5L9.9 0 0 12.5l6.3 5L623.8 507l6.3 5 9.9-12.5-6.3-5L16.2 5z"/></svg>
